Origami/64x64/apps/zuluCrypt.svg

<svg width="64" height="64" version="1" xmlns="http://www.w3.org/2000/svg">
 <rect transform="matrix(0,-1,-1,0,0,0)" x="-60" y="-60" width="56" height="56" rx="3" ry="3" style="fill:#d92929"/>
 <path d="m7 4c-1.662 0-3 1.338-3 3v1c0-1.662 1.338-3 3-3h50c1.662 0 3 1.338 3 3v-1c0-1.662-1.338-3-3-3h-50z" style="fill:#ffffff;opacity:.1"/>
 <path d="m4 57v1c0 1.662 1.338 3 3 3h50c1.662 0 3-1.338 3-3v-1c0 1.662-1.338 3-3 3h-50c-1.662 0-3-1.338-3-3z" style="opacity:.2"/>
 <g transform="matrix(1.9986202 0 0 1.9990597 .00712169 1.0144593)" style="fill:none;opacity:.2;stroke-linecap:round;stroke-linejoin:round;stroke-width:2;stroke:#000000">
  <path d="m 6.000579,12.998633 7.505178,0 L 6.5009241,22 14.506447,22.0029" style="stroke-width:2.0011606;stroke:#000000"/>
  <path d="m25 22s-8.0377 0.3149-8-6c0.03774-6.3149 8-6 8-6" style="stroke:#000000"/>
 </g>
 <g transform="matrix(1.9986202 0 0 1.9990597 .00712169 .01495753)" style="fill:none;stroke-linecap:round;stroke-linejoin:round;stroke-width:2;stroke:#ff895e">
  <path d="m6.000579 12.998633h7.505178l-7.0048329 9.001367 8.0055229 0.0029"/>
  <path d="m25 22s-8.0377 0.3149-8-6c0.03774-6.3149 8-6 8-6"/>
 </g>
</svg>

<svg xmlns="http://www.w3.org/2000/svg" width="64" height="64" version="1">
 <rect style="fill:#d92929" width="56" height="56" x="-60" y="-60" rx="3" ry="3" transform="matrix(0,-1,-1,0,0,0)"/>
 <path style="opacity:0.1;fill:#ffffff" d="M 7 4 C 5.338 4 4 5.338 4 7 L 4 8 C 4 6.338 5.338 5 7 5 L 57 5 C 58.662 5 60 6.338 60 8 L 60 7 C 60 5.338 58.662 4 57 4 L 7 4 z"/>
 <path style="opacity:0.2" d="m 4,57 0,1 c 0,1.662 1.338,3 3,3 l 50,0 c 1.662,0 3,-1.338 3,-3 l 0,-1 c 0,1.662 -1.338,3 -3,3 L 7,60 C 5.338,60 4,58.662 4,57 Z"/>
 <g style="opacity:0.2;fill:none;stroke:#000000;stroke-width:2;stroke-linecap:round;stroke-linejoin:round" transform="matrix(1.9986202,0,0,1.9990597,0.00712169,1.0144593)">
  <path style="stroke:#000000;stroke-width:2.00116062" d="m 6.000579,12.998633 7.505178,0 L 6.5009241,22 14.506447,22.0029"/>
  <path style="stroke:#000000" d="m 25,22 c 0,0 -8.0377,0.3149 -8,-6 0.03774,-6.3149 8,-6 8,-6"/>
 </g>
 <g style="fill:none;stroke:#ff895e;stroke-width:2;stroke-linecap:round;stroke-linejoin:round" transform="matrix(1.9986202,0,0,1.9990597,0.00712169,0.01495753)">
  <path d="m 6.000579,12.998633 7.505178,0 L 6.5009241,22 l 8.0055229,0.0029"/>
  <path d="m 25,22 c 0,0 -8.0377,0.3149 -8,-6 0.03774,-6.3149 8,-6 8,-6"/>
 </g>
</svg>
